src/places/16/folder-mail-cloud.svg

<svg width="16" height="16" version="1.1" xmlns="http://www.w3.org/2000/svg">
 <defs>
  <style id="current-color-scheme" type="text/css">.ColorScheme-Text { color:#363636; }</style>
 </defs>
 <path d="m9 3a5 5 0 0 0-4.5996 3.041 2 2 0 0 0-0.40039-0.041016 2 2 0 0 0-2 2 2 2 0 0 0 0.0019531 0.050781c-1.145 0.22948-2.002 1.2347-2.002 2.4492 0 1.385 1.115 2.5 2.5 2.5h11c1.385 0 2.5-1.115 2.5-2.5 0-1.2145-0.85694-2.2197-2.002-2.4492a5 5 0 0 0 0.001953-0.050781 5 5 0 0 0-5-5zm-0.066406 1a4 4 0 0 1 0.066406 0 4 4 0 0 1 4 4 4 4 0 0 1-0.13281 1h0.63281c0.831 0 1.5 0.669 1.5 1.5s-0.669 1.5-1.5 1.5h-4.5-6.5c-0.831 0-1.5-0.669-1.5-1.5s0.669-1.5 1.5-1.5h0.5v-1a1 1 0 0 1 1-1h1.1328a4 4 0 0 1 3.8008-3z" style="fill:currentColor" class="ColorScheme-Text"/>
</svg>

<svg xmlns="http://www.w3.org/2000/svg" width="16" height="16">
    <path d="M9 3a5 5 0 0 0-4.6 3.041A2 2 0 0 0 4 6a2 2 0 0 0-2 2 2 2 0 0 0 .002.05A2.492 2.492 0 0 0 0 10.5C0 11.885 1.115 13 2.5 13h11c1.385 0 2.5-1.115 2.5-2.5 0-1.215-.857-2.22-2.002-2.45A5 5 0 0 0 14 8a5 5 0 0 0-5-5zm-.066 1A4 4 0 0 1 9 4a4 4 0 0 1 4 4 4 4 0 0 1-.133 1h.633c.831 0 1.5.669 1.5 1.5s-.669 1.5-1.5 1.5h-11c-.831 0-1.5-.669-1.5-1.5S1.669 9 2.5 9H3V8a1 1 0 0 1 1-1h1.133a4 4 0 0 1 3.8-3z" style="fill:currentColor;color:#050505;opacity:.7"/>
</svg>
